icons/circle-check-outline.svg

<svg xmlns="http://www.w3.org/2000/svg" width="24" height="24" viewBox="0 0 24 24">
  <path d="M12,1 C18.0751322,1 23,5.92486775 23,12 C23,18.0751322 18.0751322,23 12,23 C5.92486775,23 1,18.0751322 1,12 C1,5.92486775 5.92486775,1 12,1 Z M12,3 C7.02943725,3 3,7.02943725 3,12 C3,16.9705627 7.02943725,21 12,21 C16.9705627,21 21,16.9705627 21,12 C21,7.02943725 16.9705627,3 12,3 Z M16.6853647,8.27180001 C17.056602,8.62119983 17.1014998,9.18733072 16.808497,9.58868088 L16.7282,9.6853647 L11.0811412,15.6853647 C10.7145073,16.0749132 10.1134372,16.1027381 9.71331242,15.7688394 L9.62474118,15.6853647 L7.27180001,13.1853647 C6.89328354,12.7831909 6.91246155,12.1503165 7.3146353,11.7718 C7.68587261,11.4224002 8.25368331,11.4118643 8.63655559,11.7286314 L8.72819999,11.8146353 L10.352,13.54 L15.2718,8.3146353 C15.6503165,7.91246155 16.2831909,7.89328354 16.6853647,8.27180001 Z"/>
</svg>

<svg xmlns="http://www.w3.org/2000/svg" viewBox="0 0 24 24">
  <path d="M12 1a11 11 0 1 1 0 22 11 11 0 0 1 0-22zm0 2a9 9 0 1 0 0 18 9 9 0 0 0 0-18zm4.69 5.27a1 1 0 0 1 .12 1.32l-.08.1-5.65 6a1 1 0 0 1-1.37.08l-.09-.08-2.35-2.5a1 1 0 0 1 1.37-1.46l.09.08 1.62 1.73 4.92-5.23a1 1 0 0 1 1.42-.04z"/>
</svg>
